X:18660
T:When Order In This Lane,bass part. JNu.39
M:4/4
Q:120
S:James Nuttall MS,c1830,Rossendale,East Lancs.
O:England
A:East Lancashire
Z:Chris Partington
K:Bb
"thirdo,read as bass clef"z2|G2d2g2G2|B2G2c2d2|g2B>cd2D2|G4z2d2|!
G2G2g2G2|B2G2c2d2|g2c2d2e2|G2G>GG2z2|!
d2d2d2d2|A2A2d2G2|A4A4|d2d>dd2z2|!
G4G4|G4c4|d2B2A2G2|d2d>dd2z2|!
G2G2A2A2|G2G2d2d2|G3d cBAG|D2D>DD2d2|!
G2d2g2G2|G2G2c2d2|g2B>cd2D2|G2G>GG2z2|!
z2G2G>Gz2|z2G2G>Gz2|G>AB>cd2D2|G2G>GG2z2|!
z2G2G>Gz2|z2G2G>Gz2|G>AB>cd2D2|G2G>GG2z2|]
